X:1
T: Dle, dle
T: A 3-Part Round
B: from Rebecca Pomerantz
C: based on a melody by the prolific 20th-century
C: Armenian-American composer Alan Hovhaness,
C: born in Somerville, Mass.
M: 2/4
K: D
L: 1/4
"1."B, E| B, E|"2."E/D/ E/F/|E2 |]
w: Dl-e, dl-e, dl - ya - man,
"3."B, E|B, E|F/G/ F/E/| E2 |]
w: Dl-e, dl-e, dl - ya - man,
A B|A/B/ A/G/|F G|F/G/ F/E/|
w: Dl-e, dl - e , dl-e, dl - e ,
B, E|D/E/ F/G/|E2 | z2 |]
w: Dl-e, dl - ya - man.